X:1
%
T:Een Been Bubbero
M:2/4
L:1/8
R:Air
N:"Sung in some sort of game, or play, or occupation" (Joyce)
Z:AK/Fiddler's Companion
K:G
c|dc/A/ G/A/c/d/|e/d/g/e/ d3E|F/F/F/D/ E/D/G/D/|
D/E/G/A/ c2|de/d/ c/A/G/E/|DD D2||

